X:1
T:North Star -- Hornpipe
R:hornpipe
B:Cole's 1000 Fiddle Tunes
M:C|
L:1/8
K:Bb
uF2|BfdB fBdB|eBgB fBdB|FBdB fBdB|AcBG F2(G"4"A)|
BfdB fBdB|eBgB fBdB|Bgfe dcBA|B2d2B2:|
|:uf2|f2(df) (cf)(df)|babf edcB|DFBD EGcB|A2 F2F2(GA)|
Bdfd cege|dfga babf|gfdB AFGA|B2d2B2:|
